frontend/react/src/assets/game.svg

<svg width="390" height="48" viewBox="0 0 390 48" fill="none" xmlns="http://www.w3.org/2000/svg">
<path d="M390 47.6471H0C0 33.153 0 25.906 3.96174 20.3594C7.52781 15.3668 13.2696 11.3138 20.3425 8.79652C21.7292 8.30299 23.8305 7.89655 26.3509 7.56185C28.6021 6.88652 30.9445 6.41853 33.3561 6.17987C35.1736 6 37.3314 6 41.6471 6H59C162.146 50.5101 221.733 50.3777 331 6H348.353C352.669 6 354.826 6 356.644 6.17987C359.056 6.41853 361.398 6.88652 363.649 7.56185C366.17 7.89655 368.271 8.30299 369.658 8.79652C376.73 11.3138 382.472 15.3668 386.038 20.3594C390 25.906 390 33.153 390 47.6471Z" fill="url(#paint0_linear_371_1276)"/>
<path d="M0 47.6471H390C390 33.153 390 25.906 386.038 20.3594C382.472 15.3668 376.73 11.3138 369.658 8.79652C368.271 8.30299 366.17 7.89655 363.649 7.56185C361.398 6.88652 359.055 6.41853 356.644 6.17987C354.826 6 352.669 6 348.353 6H331C227.854 50.5101 168.267 50.3777 59 6H41.6471C37.3314 6 35.1736 6 33.3561 6.17987C30.9445 6.41853 28.6021 6.88652 26.3509 7.56185C23.8305 7.89655 21.7292 8.30299 20.3425 8.79652C13.2696 11.3138 7.5278 15.3668 3.96173 20.3594C0 25.906 0 33.153 0 47.6471Z" fill="url(#paint1_linear_371_1276)"/>
<mask id="path-3-outside-1_371_1276" maskUnits="userSpaceOnUse" x="334" y="12" width="22" height="25" fill="black">
<rect fill="white" x="334" y="12" width="22" height="25"/>
<path fill-rule="evenodd" clip-rule="evenodd" d="M347.634 17.2133L344.278 13C343.792 13.9927 343.321 15.7448 343.998 17.0096C343.669 17.0411 343.355 17.101 343.112 17.2059C341.563 17.8754 339.862 19.6052 339.026 23.204C338.784 24.2461 338.348 24.7452 337.831 25.3383C337.342 25.8977 336.781 26.5409 336.24 27.8026C335.125 30.4018 338.133 33.001 340.326 30.6402C341.559 29.313 342.637 28.7651 343.542 28.3051C344.844 27.643 345.967 27.3594 346.5 25C346.754 26.1006 346.474 28.5014 344.038 30.0863C341.602 31.6711 341.095 35.0095 341.145 36H355C355 26.5963 353.843 18.4714 347.634 17.2133Z"/>
</mask>
<path fill-rule="evenodd" clip-rule="evenodd" d="M347.634 17.2133L344.278 13C343.792 13.9927 343.321 15.7448 343.998 17.0096C343.669 17.0411 343.355 17.101 343.112 17.2059C341.563 17.8754 339.862 19.6052 339.026 23.204C338.784 24.2461 338.348 24.7452 337.831 25.3383C337.342 25.8977 336.781 26.5409 336.24 27.8026C335.125 30.4018 338.133 33.001 340.326 30.6402C341.559 29.313 342.637 28.7651 343.542 28.3051C344.844 27.643 345.967 27.3594 346.5 25C346.754 26.1006 346.474 28.5014 344.038 30.0863C341.602 31.6711 341.095 35.0095 341.145 36H355C355 26.5963 353.843 18.4714 347.634 17.2133Z" fill="#E6E6FA"/>
<path d="M344.278 13L345.06 12.377C344.846 12.1087 344.51 11.9687 344.169 12.0059C343.828 12.0431 343.53 12.2524 343.38 12.5605L344.278 13ZM347.634 17.2133L346.851 17.8363C346.998 18.0203 347.205 18.1467 347.435 18.1934L347.634 17.2133ZM343.998 17.0096L344.093 18.0051C344.427 17.9732 344.722 17.7768 344.88 17.4819C345.038 17.187 345.038 16.8326 344.88 16.5377L343.998 17.0096ZM343.112 17.2059L343.509 18.1239L343.509 18.1239L343.112 17.2059ZM339.026 23.204L340 23.4303L340 23.4303L339.026 23.204ZM337.831 25.3383L337.077 24.6807L337.077 24.6807L337.831 25.3383ZM336.24 27.8026L335.321 27.4085L335.321 27.4085L336.24 27.8026ZM340.326 30.6402L341.059 31.3208L341.059 31.3208L340.326 30.6402ZM343.542 28.3051L343.089 27.4136L343.089 27.4136L343.542 28.3051ZM346.5 25L347.474 24.7753C347.37 24.3207 346.964 23.999 346.498 24C346.031 24.001 345.627 24.3245 345.525 24.7795L346.5 25ZM341.145 36L340.147 36.0512C340.174 36.5829 340.613 37 341.145 37V36ZM355 36V37C355.552 37 356 36.5523 356 36H355ZM343.496 13.623L346.851 17.8363L348.416 16.5903L345.06 12.377L343.496 13.623ZM344.88 16.5377C344.676 16.1564 344.615 15.6363 344.693 15.032C344.771 14.4359 344.973 13.8542 345.176 13.4395L343.38 12.5605C343.097 13.1385 342.82 13.9292 342.71 14.7736C342.601 15.6097 342.643 16.5981 343.116 17.4816L344.88 16.5377ZM343.903 16.0142C343.533 16.0496 343.099 16.1224 342.716 16.2879L343.509 18.1239C343.612 18.0796 343.806 18.0326 344.093 18.0051L343.903 16.0142ZM342.716 16.2879C340.806 17.1129 338.941 19.1506 338.052 22.9778L340 23.4303C340.783 20.0597 342.319 18.6379 343.509 18.1239L342.716 16.2879ZM338.052 22.9778C337.868 23.7689 337.573 24.1129 337.077 24.6807L338.584 25.9959C339.124 25.3775 339.7 24.7234 340 23.4303L338.052 22.9778ZM337.077 24.6807C336.565 25.2673 335.923 26.0036 335.321 27.4085L337.159 28.1967C337.639 27.0782 338.119 26.5282 338.584 25.9959L337.077 24.6807ZM335.321 27.4085C334.573 29.153 335.206 30.9338 336.434 31.8751C337.054 32.3496 337.843 32.6253 338.689 32.5548C339.544 32.4837 340.365 32.0675 341.059 31.3208L339.594 29.9596C339.191 30.3933 338.814 30.5375 338.523 30.5617C338.223 30.5867 337.919 30.4928 337.651 30.2877C337.106 29.8698 336.793 29.0514 337.159 28.1967L335.321 27.4085ZM341.059 31.3208C342.169 30.1258 343.119 29.6421 343.995 29.1965L343.089 27.4136C342.156 27.8881 340.949 28.5002 339.594 29.9596L341.059 31.3208ZM343.995 29.1965C344.531 28.9239 345.334 28.5988 345.97 28.0399C346.675 27.4193 347.175 26.5513 347.475 25.2205L345.525 24.7795C345.292 25.8081 344.963 26.2616 344.649 26.5381C344.264 26.8764 343.855 27.0242 343.089 27.4136L343.995 29.1965ZM345.526 25.2247C345.697 25.969 345.533 27.9206 343.493 29.2481L344.583 30.9245C347.415 29.0823 347.81 26.2321 347.474 24.7753L345.526 25.2247ZM343.493 29.2481C342.031 30.1988 341.189 31.6454 340.721 32.9211C340.255 34.1876 340.114 35.4046 340.147 36.0512L342.144 35.9488C342.126 35.6049 342.213 34.6574 342.598 33.6109C342.979 32.5735 343.609 31.5585 344.583 30.9245L343.493 29.2481ZM341.145 37H355V35H341.145V37ZM356 36C356 31.2849 355.714 26.7707 354.599 23.2501C353.476 19.7058 351.436 16.9634 347.832 16.2332L347.435 18.1934C350.041 18.7213 351.684 20.6704 352.692 23.854C353.708 27.0613 354 31.3114 354 36H356Z" fill="black" mask="url(#path-3-outside-1_371_1276)"/>
<path fill-rule="evenodd" clip-rule="evenodd" d="M76.5514 0C69.8776 0 70.9266 8.01771 77.2028 10.2869C121.944 26.463 158.359 34.8117 193.975 35.3025C230.011 35.1164 266.715 26.8727 311.903 10.603C318.371 8.2744 319.513 0 312.639 0V0H76.5514V0Z" fill="#B0B0B0"/>
<path d="M203.545 11.2408L197.065 6.37126C195.299 5.04209 192.587 5.11459 190.889 6.52834L185.252 11.2529C184.127 12.1954 183.239 14.1288 183.239 15.6513V23.9888C183.239 27.07 185.567 29.5833 188.436 29.5833H200.564C203.432 29.5833 205.761 27.0821 205.761 24.0008V15.8083C205.761 14.1771 204.782 12.1713 203.545 11.2408ZM195.344 24.75C195.344 25.2454 194.961 25.6563 194.5 25.6563C194.039 25.6563 193.656 25.2454 193.656 24.75V21.125C193.656 20.6296 194.039 20.2188 194.5 20.2188C194.961 20.2188 195.344 20.6296 195.344 21.125V24.75Z" fill="#1C1C1C"/>
<defs>
<linearGradient id="paint0_linear_371_1276" x1="0" y1="26.8235" x2="390" y2="26.8235" gradientUnits="userSpaceOnUse">
<stop stop-color="#4169E1"/>
<stop offset="0.25" stop-color="#8A2BE2"/>
<stop offset="0.48" stop-color="#B0B0B0"/>
<stop offset="1" stop-color="#B0B0B0"/>
</linearGradient>
<linearGradient id="paint1_linear_371_1276" x1="390" y1="26.8235" x2="0" y2="26.8235" gradientUnits="userSpaceOnUse">
<stop stop-color="#4169E1"/>
<stop offset="0.25" stop-color="#8A2BE2"/>
<stop offset="0.48" stop-color="#B0B0B0"/>
<stop offset="1" stop-color="#B0B0B0"/>
</linearGradient>
</defs>
</svg>

<svg xmlns="http://www.w3.org/2000/svg" width="390" height="48" fill="none" xmlns:v="https://vecta.io/nano"><path d="M390 47.647H0c0-14.494 0-21.741 3.962-27.288 3.566-4.993 9.308-9.046 16.381-11.563 1.387-.494 3.488-.9 6.008-1.235a37.07 37.07 0 0 1 7.005-1.382C35.174 6 37.331 6 41.647 6H59c103.146 44.51 162.733 44.378 272 0h17.353c4.316 0 6.473 0 8.291.18a37.06 37.06 0 0 1 7.005 1.382c2.521.335 4.622.741 6.009 1.235 7.072 2.517 12.814 6.57 16.38 11.563C390 25.906 390 33.153 390 47.647z" fill="url(#B)"/><path d="M0 47.647h390c0-14.494 0-21.741-3.962-27.288-3.566-4.993-9.308-9.046-16.38-11.563-1.387-.494-3.488-.9-6.009-1.235-2.251-.675-4.594-1.143-7.005-1.382-1.818-.18-3.975-.18-8.291-.18H331C227.854 50.51 168.267 50.378 59 6H41.647c-4.316 0-6.474 0-8.291.18a37.07 37.07 0 0 0-7.005 1.382c-2.52.335-4.622.741-6.008 1.235-7.073 2.517-12.815 6.57-16.381 11.563C0 25.906 0 33.153 0 47.647z" fill="url(#C)"/><mask id="A" maskUnits="userSpaceOnUse" x="334" y="12" width="22" height="25" fill="#000"><path fill="#fff" d="M334 12h22v25h-22z"/><path fill-rule="evenodd" d="M347.634 17.213L344.278 13c-.486.993-.957 2.745-.28 4.01-.329.032-.643.091-.886.196-1.549.669-3.25 2.399-4.086 5.998-.242 1.042-.678 1.541-1.195 2.134-.489.559-1.05 1.203-1.591 2.464-1.115 2.599 1.893 5.198 4.086 2.838 1.233-1.327 2.311-1.875 3.216-2.335 1.302-.662 2.425-.946 2.958-3.305.254 1.101-.026 3.501-2.462 5.086s-2.943 4.923-2.893 5.914H355c0-9.404-1.157-17.529-7.366-18.787z"/></mask><path fill-rule="evenodd" d="M347.634 17.213L344.278 13c-.486.993-.957 2.745-.28 4.01-.329.032-.643.091-.886.196-1.549.669-3.25 2.399-4.086 5.998-.242 1.042-.678 1.541-1.195 2.134-.489.559-1.05 1.203-1.591 2.464-1.115 2.599 1.893 5.198 4.086 2.838 1.233-1.327 2.311-1.875 3.216-2.335 1.302-.662 2.425-.946 2.958-3.305.254 1.101-.026 3.501-2.462 5.086s-2.943 4.923-2.893 5.914H355c0-9.404-1.157-17.529-7.366-18.787z" fill="#e6e6fa"/><path d="M344.278 13l.782-.623a1 1 0 0 0-.891-.371c-.341.037-.639.246-.789.555l.898.44zm3.356 4.213l-.783.623c.147.184.354.31.584.357l.199-.98zm-3.636-.204l.095.995a1 1 0 0 0 .787-1.467l-.882.472zm-.886.196l.397.918h0l-.397-.918zm-4.086 5.998l.974.226h0l-.974-.226zm-1.195 2.134l-.754-.658h0l.754.658zm-1.591 2.464l-.919-.394h0l.919.394zm4.086 2.838l.733.681h0l-.733-.681zm3.216-2.335l-.453-.892h0l.453.892zM346.5 25l.974-.225a1 1 0 0 0-1.949.004l.975.221zm-5.355 11l-.998.051a1 1 0 0 0 .998.949v-1zM355 36v1a1 1 0 0 0 1-1h-1zm-11.504-22.377l3.355 4.213 1.565-1.246-3.356-4.213-1.564 1.246zm1.384 2.915c-.204-.381-.265-.901-.187-1.506a5.37 5.37 0 0 1 .483-1.592l-1.796-.879c-.283.578-.56 1.369-.67 2.213-.109.836-.067 1.824.406 2.708l1.764-.944zm-.977-.524c-.37.035-.804.108-1.187.274l.793 1.836c.103-.044.297-.091.584-.119l-.19-1.991zm-1.187.274c-1.91.825-3.775 2.863-4.664 6.69l1.948.453c.783-3.371 2.319-4.792 3.509-5.306l-.793-1.836zm-4.664 6.69c-.184.791-.479 1.135-.975 1.703l1.507 1.315c.54-.618 1.116-1.272 1.416-2.566l-1.948-.453zm-.975 1.703c-.512.587-1.154 1.323-1.756 2.728l1.838.788c.48-1.119.96-1.669 1.425-2.201l-1.507-1.315zm-1.756 2.728c-.748 1.744-.115 3.525 1.113 4.467.62.475 1.409.75 2.255.68.855-.071 1.676-.487 2.37-1.234l-1.465-1.361c-.403.434-.78.578-1.071.602-.3.025-.604-.069-.872-.274-.545-.418-.858-1.236-.492-2.091l-1.838-.788zm5.738 3.912c1.11-1.195 2.06-1.679 2.936-2.124l-.906-1.783c-.933.475-2.14 1.087-3.495 2.546l1.465 1.361zm2.936-2.124c.536-.273 1.339-.598 1.975-1.157.705-.621 1.205-1.489 1.505-2.819l-1.95-.441c-.233 1.029-.562 1.482-.876 1.759-.385.338-.794.486-1.56.875l.906 1.783zm1.531-3.972c.171.744.007 2.696-2.033 4.023l1.09 1.676c2.832-1.842 3.227-4.692 2.891-6.149l-1.948.449zm-2.033 4.023c-1.462.951-2.304 2.397-2.772 3.673-.466 1.267-.607 2.483-.574 3.13l1.997-.102c-.018-.344.069-1.291.454-2.338.381-1.037 1.011-2.052 1.985-2.686l-1.09-1.676zM341.145 37H355v-2h-13.855v2zM356 36c0-4.715-.286-9.229-1.401-12.75-1.123-3.544-3.163-6.287-6.767-7.017l-.397 1.96c2.606.528 4.249 2.477 5.257 5.661C353.708 27.061 354 31.311 354 36h2z" fill="#000" mask="url(#A)"/><path fill-rule="evenodd" d="M76.551 0c-6.674 0-5.625 8.018.651 10.287 44.741 16.176 81.156 24.525 116.772 25.016 36.036-.186 72.74-8.43 117.928-24.699C318.371 8.274 319.513 0 312.639 0h0H76.551h0z" fill="#b0b0b0"/><path d="M203.545 11.241l-6.48-4.87c-1.766-1.329-4.478-1.257-6.176.157l-5.637 4.725c-1.125.942-2.013 2.876-2.013 4.398v8.338c0 3.081 2.328 5.595 5.197 5.595h12.128c2.868 0 5.197-2.501 5.197-5.582v-8.193c0-1.631-.979-3.637-2.216-4.567zm-8.201 13.509c0 .495-.383.906-.844.906s-.844-.411-.844-.906v-3.625c0-.495.383-.906.844-.906s.844.411.844.906v3.625z" fill="#1c1c1c"/><defs><linearGradient id="B" x1="0" y1="26.824" x2="390" y2="26.824" gradientUnits="userSpaceOnUse"><stop stop-color="#4169e1"/><stop offset=".25" stop-color="#8a2be2"/><stop offset=".48" stop-color="#b0b0b0"/></linearGradient><linearGradient id="C" x1="390" y1="26.824" x2="0" y2="26.824" gradientUnits="userSpaceOnUse"><stop stop-color="#4169e1"/><stop offset=".25" stop-color="#8a2be2"/><stop offset=".48" stop-color="#b0b0b0"/></linearGradient></defs></svg>
